src/assets/images/index-iq.svg

<svg width="126" height="40" viewBox="0 0 126 40" fill="none" xmlns="http://www.w3.org/2000/svg">
<g style="mix-blend-mode:luminosity" clip-path="url(#clip0)">
<path fill-rule="evenodd" clip-rule="evenodd" d="M3.40627 11.0912H0.595703V7.44428H3.40627V11.0912ZM3.40627 31.1797H0.595703V14.1032H3.40627V31.1797ZM11.9758 15.1797C12.1196 15.068 12.2682 14.9622 12.4212 14.8627C13.5711 14.1141 14.907 13.8244 16.2744 13.8244C18.0584 13.8244 19.7139 14.3512 20.8532 15.7564C22.07 17.2573 22.3341 19.4456 22.3341 21.304V31.1797H19.5232V21.276C19.5232 20.1639 19.4084 18.3879 18.6301 17.5168C18.0117 16.8247 17.2081 16.5763 16.2886 16.5763C15.1996 16.5763 14.1048 16.8087 13.3436 17.6285C12.572 18.4595 12.1621 19.4961 11.9724 20.5913V31.1797H9.16136V14.1032H11.9773L11.9758 15.1797ZM38.1664 15.1208V7.44232H40.9772V31.1797H38.2071L38.1959 30.2745C37.9923 30.4105 37.7813 30.5354 37.5641 30.6497C36.4486 31.2364 35.2086 31.4726 33.9497 31.4726C31.8678 31.4726 30.1223 30.6843 28.8789 29.031C27.5577 27.2743 27.1499 25.0591 27.1499 22.9203V22.6276C27.1499 20.4412 27.556 18.1695 28.8769 16.3552C30.1122 14.6586 31.8599 13.8244 33.9784 13.8244C35.2654 13.8244 36.5146 14.0971 37.6203 14.7583C37.8082 14.8706 37.9903 14.9917 38.1664 15.1208ZM48.3047 23.1394V23.2129C48.3047 24.6894 48.6857 26.0577 49.6626 27.2063C50.534 28.231 51.6162 28.7208 52.977 28.7208C53.7586 28.7208 54.5251 28.5769 55.2505 28.2913C55.8853 28.0414 56.4862 27.6912 56.9562 27.1986L57.8218 26.2912L59.4154 28.55L58.8721 29.1371C58.1961 29.8675 57.3565 30.4169 56.4417 30.8199C55.3561 31.2982 54.1602 31.4726 52.977 31.4726C50.8364 31.4726 49.0394 30.6345 47.6235 29.0743C46.1236 27.4217 45.494 25.4 45.494 23.2129V22.3212C45.494 20.0924 46.0939 17.9938 47.599 16.283C49.0237 14.6637 50.8625 13.8244 53.0481 13.8244C54.9296 13.8244 56.6133 14.4204 57.8908 15.8055C59.2136 17.2395 59.6771 19.0905 59.6771 20.9833V23.1394H48.3047ZM69.626 20.0804L74.0142 14.1032H77.5006L71.3557 22.4466L77.7848 31.1797H74.3147L69.614 24.8099L64.9266 31.1797H61.4557L67.8846 22.4466L61.7398 14.1032H65.2254L69.626 20.0804ZM38.1664 26.2731V19.5145C37.8519 18.6992 37.3711 17.9849 36.7056 17.4009C35.9642 16.7505 34.9282 16.5763 33.9638 16.5763C32.7129 16.5763 31.7803 17.0305 31.1029 18.0717C30.2362 19.4035 29.9892 21.075 29.9892 22.6276V22.9203C29.9892 24.4054 30.2135 26.0655 31.0758 27.3242C31.7634 28.3283 32.7234 28.7208 33.9354 28.7208C34.8969 28.7208 35.8829 28.5495 36.6901 28.0098C37.3538 27.5662 37.8426 26.9894 38.1664 26.2731ZM48.5698 20.3872L56.8454 20.3877C56.7682 19.4124 56.467 18.4981 55.8099 17.7309C55.0898 16.8902 54.1471 16.5763 53.0481 16.5763C51.793 16.5763 50.7362 16.9665 49.8773 17.8778C49.1823 18.6152 48.7824 19.4364 48.5698 20.3872ZM115.273 17.6469C115.273 15.6659 114.887 13.5999 113.575 12.027C112.383 10.5965 110.739 10.0969 108.902 10.0969C107.075 10.0969 105.443 10.5957 104.262 12.0236C102.958 13.5993 102.576 15.6684 102.576 17.6469V20.9274C102.576 22.9124 102.956 24.9994 104.268 26.5788C105.457 28.0097 107.099 28.5072 108.933 28.5072C110.761 28.5072 112.403 28.0143 113.589 26.5866C114.899 25.0081 115.273 22.9098 115.273 20.9274V17.6469ZM96.0574 31.3165H92.8678V7.28749H96.0574V31.3165ZM116.518 27.935L120.412 31.6547L118.06 33.7216L114.251 30.1447C113.648 30.5394 112.997 30.8568 112.313 31.0938C111.228 31.4697 110.081 31.6298 108.933 31.6298C106.165 31.6298 103.704 30.7464 101.885 28.6489C100.004 26.4815 99.3719 23.711 99.3719 20.9274V17.6768C99.3719 14.8998 100.001 12.1371 101.865 9.96696C103.675 7.85991 106.134 6.97438 108.902 6.97438C111.671 6.97438 114.123 7.86657 115.942 9.96252C117.823 12.1297 118.463 14.8919 118.463 17.6768V20.9274C118.463 22.4198 118.277 23.9208 117.803 25.3432C117.497 26.2605 117.075 27.139 116.518 27.935ZM125.649 39.8218H84.603V0.17334H125.649V39.8218Z" fill="#1C1B17"/>
</g>
<defs>
<clipPath id="clip0">
<rect width="126" height="40" fill="white"/>
</clipPath>
</defs>
</svg>

<svg width="126" height="40" fill="none" xmlns="http://www.w3.org/2000/svg"><g style="mix-blend-mode:luminosity" clip-path="url(#clip0)"><path fill-rule="evenodd" clip-rule="evenodd" d="M3.406 11.091H.596V7.444h2.81v3.647zm0 20.089H.596V14.103h2.81V31.18zm8.57-16c.144-.112.292-.218.445-.317 1.15-.749 2.486-1.039 3.853-1.039 1.784 0 3.44.527 4.58 1.932 1.216 1.501 1.48 3.69 1.48 5.548v9.876h-2.81v-9.904c0-1.112-.116-2.888-.894-3.76-.618-.691-1.422-.94-2.341-.94-1.09 0-2.184.233-2.945 1.052-.772.831-1.182 1.868-1.372 2.963V31.18h-2.81V14.103h2.815l-.001 1.077zm26.19-.06V7.443h2.811V31.18h-2.77l-.011-.905c-.204.136-.415.26-.632.375-1.115.586-2.355.823-3.614.823-2.082 0-3.828-.789-5.071-2.442-1.321-1.757-1.73-3.972-1.73-6.11v-.293c0-2.187.407-4.459 1.728-6.273 1.235-1.696 2.983-2.53 5.101-2.53 1.287 0 2.537.272 3.642.933.188.113.37.234.546.363zm10.139 8.02v.073c0 1.476.38 2.845 1.358 3.993.871 1.025 1.953 1.515 3.314 1.515a6.18 6.18 0 002.274-.43c.634-.25 1.235-.6 1.705-1.092l.866-.908 1.593 2.259-.543.587c-.676.73-1.516 1.28-2.43 1.683-1.086.478-2.282.653-3.465.653-2.14 0-3.938-.838-5.353-2.399-1.5-1.652-2.13-3.674-2.13-5.861v-.892c0-2.229.6-4.327 2.105-6.038 1.425-1.62 3.264-2.459 5.45-2.459 1.88 0 3.564.596 4.842 1.982 1.323 1.434 1.786 3.284 1.786 5.177v2.156H48.305zm21.321-3.06l4.388-5.977h3.487l-6.145 8.344 6.429 8.733h-3.47l-4.701-6.37-4.687 6.37h-3.471l6.429-8.733-6.145-8.344h3.485l4.401 5.977zm-31.46 6.193v-6.758a5.315 5.315 0 00-1.46-2.114c-.742-.65-1.778-.825-2.742-.825-1.251 0-2.184.454-2.861 1.496-.867 1.332-1.114 3.003-1.114 4.556v.292c0 1.485.224 3.145 1.087 4.404.687 1.004 1.647 1.397 2.86 1.397.96 0 1.947-.172 2.754-.711a4.057 4.057 0 001.476-1.737zm10.404-5.886h8.275c-.077-.975-.378-1.889-1.035-2.656-.72-.84-1.663-1.155-2.762-1.155-1.255 0-2.312.39-3.17 1.302-.696.737-1.096 1.558-1.308 2.51zm66.703-2.74c0-1.981-.386-4.047-1.698-5.62-1.192-1.43-2.836-1.93-4.673-1.93-1.827 0-3.459.499-4.64 1.927-1.304 1.575-1.686 3.644-1.686 5.623v3.28c0 1.985.38 4.072 1.692 5.652 1.189 1.43 2.831 1.928 4.665 1.928 1.828 0 3.47-.493 4.656-1.92 1.31-1.579 1.684-3.677 1.684-5.66v-3.28zm-19.216 13.67h-3.19V7.287h3.19v24.03zm20.461-3.382l3.894 3.72-2.352 2.067-3.809-3.577a8.79 8.79 0 01-1.938.949c-1.085.376-2.232.536-3.38.536-2.768 0-5.229-.884-7.048-2.981-1.881-2.168-2.513-4.938-2.513-7.722v-3.25c0-2.777.629-5.54 2.493-7.71 1.81-2.107 4.269-2.993 7.037-2.993 2.769 0 5.221.893 7.04 2.989 1.881 2.167 2.521 4.929 2.521 7.714v3.25c0 1.493-.186 2.994-.66 4.416a10.06 10.06 0 01-1.285 2.592zm9.131 11.887H84.603V.173h41.046v39.649z" fill="#1C1B17"/></g><defs><clipPath id="clip0"><path fill="#fff" d="M0 0h126v40H0z"/></clipPath></defs></svg>
